X:4845
T:Entemediu (MQ 065)
T:Caminos perdidos
R:Marcha
C:Tradicional
S:Msica Tradicional Asturiana, (C) Tello & Tito. Asturies, 2001.
S:http://pagina.de/MusTradAst <telloytito@asturies.org>
N:Esta pieza, que actualmente muchos gaiteros tocamos como intermedio, es una cancin litrgica que se cantaba en los oficios religiosos y que empez a tocarse con gaita no hace an mucho tiempo.
A:Asturies
Z:Manolo Quirs 065
M:3/8
L:1/8
Q:3/8=60
K:C
|: E2 F|E/D/CD|E2 D|C3|D2 E|FED|G3-|G3|E2 F|E/D/CD|E2 D|C3|D2 E|F>ED|C3-:|
|: CC/D/E/F/|G2 E|G2 E|FGA|G2 E|G2 E|G2 E|FGA|G3|
F2 D|F2 D|EFG|F2 D|c2 B|A2 G|FED|[1 C3- :|[2 C3-|C3|
